X:6
T:Tringhams Fancy, or... THO3.006
T:Recruiting Serjeant THO3.006
O:England;London
M:C|
L:1/8
Z:vmp. Peter Dunk 2011.from a transcription by Fynn Titford-Mock 2006-9
B:Thompson's Compleat Collection of 200 Favourite Country Dances Vol. III.1765-72
Q:1/2=80
K:G
A/B/|dBAB G2 AB|cAFA D2 Ac|Bgfe dcBA|G2 GG G3:|
|:B/c/|dBec d3 B/c/|dBec d3 B/c/|dBgf edcB|A2 AA A3 (B/c/)|
dBAB G2 AB|cAFA D2 Ac|Bgfe dcBA|G2 GG G3:|

